outputs/icons/communication/phone_in_talk_round.svg

<svg xmlns="http://www.w3.org/2000/svg" width="1200" height="1200" fill="none"><g clip-path="url(#a)"><path fill="#000" d="M644 252.488c159 20 283.5 144.5 303.5 303.502 3 25.5 24.5 44 49.5 44 2 0 4 0 6-.5 27.5-3.5 47-28.5 43.5-56-25.5-204.502-186-365.001-390.5-390.502-27.5-3-52.5 16.5-55.5 44.001-3.5 27.499 16 52.499 43.5 55.499m19 105.5c-26.5-7-54 9-61 36s9 54.001 36 61c52.5 13.501 93.5 54.502 107.5 107.502 6 22.5 26 37.5 48.5 37.5 4 0 8.5-.5 12.5-1.5 26.5-7 42.5-34.5 36-61-23.5-88.502-92-157.002-179.5-179.502M961.5 762.99l-127-14.5c-30.5-3.5-60.5 7-82 28.5l-92 92c-141.5-72-257.498-187.5-329.498-329.5l92.5-92.502c21.5-21.5 32-51.5 28.5-82l-14.5-125.999c-6-50.501-48.5-88.5-99.5-88.5h-86.5c-56.5 0-103.5 46.999-100 103.499C178.002 680.99 519.5 1021.99 946 1048.49c56.5 3.5 103.5-43.5 103.5-100v-86.5c.5-50.5-37.5-93-88-99"/></g><defs><clipPath id="a"><path fill="#fff" d="M0 0h1200v1200H0z"/></clipPath></defs></svg>

<svg width="1200" height="1200" viewBox="0 0 1200 1200" fill="none" xmlns="http://www.w3.org/2000/svg"><g clip-path="url(#clip0_238_2780)"><path d="M644 252.488C803 272.488 927.5 396.988 947.5 555.99C950.5 581.49 972 599.99 997 599.99C999 599.99 1001 599.99 1003 599.49C1030.5 595.99 1050 570.99 1046.5 543.49C1021 338.988 860.5 178.489 656 152.988C628.5 149.988 603.5 169.488 600.5 196.989C597 224.488 616.5 249.488 644 252.488ZM663 357.988C636.5 350.988 609 366.988 602 393.988C595 420.988 611 447.989 638 454.988C690.5 468.489 731.5 509.49 745.5 562.49C751.5 584.99 771.5 599.99 794 599.99C798 599.99 802.5 599.49 806.5 598.49C833 591.49 849 563.99 842.5 537.49C819 448.988 750.5 380.488 663 357.988ZM961.5 762.99L834.5 748.49C804 744.99 774 755.49 752.5 776.99L660.5 868.99C519 796.99 403.002 681.49 331.002 539.49L423.502 446.988C445.002 425.488 455.502 395.488 452.002 364.988L437.502 238.989C431.502 188.488 389.002 150.489 338.002 150.489H251.502C195.002 150.489 148.002 197.488 151.502 253.988C178.002 680.99 519.5 1021.99 946 1048.49C1002.5 1051.99 1049.5 1004.99 1049.5 948.49V861.99C1050 811.49 1012 768.99 961.5 762.99Z" fill="black"/></g><defs><clipPath id="clip0_238_2780"><path width="24" fill="white" d="M0 0H1200V1200H0V0z"/></clipPath></defs></svg>
